public/style/workarea/images/icons/exe-save-icon-white.svg

<svg fill="none" height="24" viewBox="0 0 21 20" width="24" xmlns="http://www.w3.org/2000/svg"><g stroke="#fff" stroke-linecap="round" stroke-linejoin="round" stroke-width="2"><path d="m16.3331 17.5h-11.66668c-.44203 0-.86595-.1756-1.17851-.4882-.31256-.3125-.48815-.7364-.48815-1.1785v-11.66663c0-.44203.17559-.86595.48815-1.17851.31256-.31257.73648-.48816 1.17851-.48816h9.16668l4.1667 4.16667v9.16663c0 .4421-.1756.866-.4882 1.1785-.3126.3126-.7365.4882-1.1785.4882z"/><path d="m14.6663 17.5v-6.6667h-8.33329v6.6667"/><path d="m6.33301 2.5v4.16667h6.66669"/></g></svg>

<svg width="24" height="24" viewBox="0 0 21 20" fill="none" xmlns="http://www.w3.org/2000/svg">
<path d="M16.3331 17.5H4.66642C4.22439 17.5 3.80047 17.3244 3.48791 17.0118C3.17535 16.6993 2.99976 16.2754 2.99976 15.8333V4.16667C2.99976 3.72464 3.17535 3.30072 3.48791 2.98816C3.80047 2.67559 4.22439 2.5 4.66642 2.5H13.8331L17.9998 6.66667V15.8333C17.9998 16.2754 17.8242 16.6993 17.5116 17.0118C17.199 17.3244 16.7751 17.5 16.3331 17.5Z" stroke="white" stroke-width="2" stroke-linecap="round" stroke-linejoin="round"/>
<path d="M14.6663 17.5V10.8333H6.33301V17.5" stroke="white" stroke-width="2" stroke-linecap="round" stroke-linejoin="round"/>
<path d="M6.33301 2.5V6.66667H12.9997" stroke="white" stroke-width="2" stroke-linecap="round" stroke-linejoin="round"/>
</svg>
